public/files/perm/themes/base/neo/img/arrow_forward.svg

<svg fill="none" height="22" viewBox="0 0 21 22" width="21" xmlns="http://www.w3.org/2000/svg"><path d="m4.46481 11.8572h9.57429l-4.18286 4.1828c-.33429.3343-.33429.8829 0 1.2172.33426.3343.87426.3343 1.20856 0l5.6486-5.6486c.3343-.3343.3343-.8743 0-1.2086l-5.64-5.6571c-.3343-.33428-.8743-.33428-1.20859 0-.33429.33429-.33429.87429 0 1.20857l4.17429 4.19143h-9.57429c-.47143 0-.85714.3857-.85714.8571 0 .4715.38571.8572.85714.8572z" fill="#fff"/></svg>

<svg width="21" height="22" viewBox="0 0 21 22" fill="none" xmlns="http://www.w3.org/2000/svg">
<path d="M4.46481 11.8572H14.0391L9.85624 16.04C9.52195 16.3743 9.52195 16.9229 9.85624 17.2572C10.1905 17.5915 10.7305 17.5915 11.0648 17.2572L16.7134 11.6086C17.0477 11.2743 17.0477 10.7343 16.7134 10.4L11.0734 4.7429C10.7391 4.40862 10.1991 4.40862 9.86481 4.7429C9.53052 5.07719 9.53052 5.61719 9.86481 5.95147L14.0391 10.1429H4.46481C3.99338 10.1429 3.60767 10.5286 3.60767 11C3.60767 11.4715 3.99338 11.8572 4.46481 11.8572Z" fill="white"/>
</svg>
